svgs/duotone/location-crosshairs.svg

<svg xmlns="http://www.w3.org/2000/svg" viewBox="0 0 512 512"><!--! Font Awesome Pro 6.5.1 by @fontawesome - https://fontawesome.com License - https://fontawesome.com/license (Commercial License) Copyright 2023 Fonticons, Inc. --><defs><style>.fa-secondary{opacity:.4}</style></defs><path class="fa-secondary" d="M256 336a80 80 0 1 0 0-160 80 80 0 1 0 0 160z"/><path class="fa-primary" d="M256 0c17.7 0 32 14.3 32 32V66.7C368.4 80.1 431.9 143.6 445.3 224H480c17.7 0 32 14.3 32 32s-14.3 32-32 32H445.3C431.9 368.4 368.4 431.9 288 445.3V480c0 17.7-14.3 32-32 32s-32-14.3-32-32V445.3C143.6 431.9 80.1 368.4 66.7 288H32c-17.7 0-32-14.3-32-32s14.3-32 32-32H66.7C80.1 143.6 143.6 80.1 224 66.7V32c0-17.7 14.3-32 32-32zM128 256a128 128 0 1 0 256 0 128 128 0 1 0 -256 0z"/></svg>

<svg xmlns="http://www.w3.org/2000/svg" viewBox="0 0 512 512"><!--! Font Awesome Pro 6.1.1 by @fontawesome - https://fontawesome.com License - https://fontawesome.com/license (Commercial License) Copyright 2022 Fonticons, Inc. --><defs><style>.fa-secondary{opacity:.4}</style></defs><path class="fa-primary" d="M256 0C273.7 0 288 14.33 288 32V66.65C368.4 80.14 431.9 143.6 445.3 224H480C497.7 224 512 238.3 512 256C512 273.7 497.7 288 480 288H445.3C431.9 368.4 368.4 431.9 288 445.3V480C288 497.7 273.7 512 256 512C238.3 512 224 497.7 224 480V445.3C143.6 431.9 80.14 368.4 66.65 288H32C14.33 288 0 273.7 0 256C0 238.3 14.33 224 32 224H66.65C80.14 143.6 143.6 80.14 224 66.65V32C224 14.33 238.3 0 256 0zM128 256C128 326.7 185.3 384 256 384C326.7 384 384 326.7 384 256C384 185.3 326.7 128 256 128C185.3 128 128 185.3 128 256z"/><path class="fa-secondary" d="M336 256C336 300.2 300.2 336 256 336C211.8 336 176 300.2 176 256C176 211.8 211.8 176 256 176C300.2 176 336 211.8 336 256z"/></svg>
